web/app/icon.svg

<svg xmlns="http://www.w3.org/2000/svg" viewBox="0 0 64 64">
  <title>InboxTap mark</title>
  <rect x="1" y="1" width="62" height="62" rx="11" fill="#050505" stroke="#e7ebe8" stroke-opacity=".8" stroke-width="1.5"/>
  <path d="M32 8V23" fill="none" stroke="#e7ebe8" stroke-width="5"/>
  <path d="m24 17 8 8 8-8" fill="none" stroke="#e7ebe8" stroke-width="5"/>
  <path d="M13 32h11l5 7h6l5-7h11v19H13Z" fill="none" stroke="#00e676" stroke-width="5"/>
</svg>

<svg xmlns="http://www.w3.org/2000/svg" viewBox="0 0 64 64">
  <title>InboxTap mark</title>
  <path d="M32 8 V23" fill="none" stroke="#e7ebe8" stroke-width="5"></path>
  <path d="M24 17 L32 25 L40 17" fill="none" stroke="#e7ebe8" stroke-width="5"></path>
  <path d="M13 32 H24 L29 39 H35 L40 32 H51 V51 H13 Z" fill="none" stroke="#00e676" stroke-width="5"></path>
</svg>
